file/pilot-flying-j.svg

<svg clip-rule="evenodd" fill-rule="evenodd" stroke-linejoin="round" stroke-miterlimit="1.41421" viewBox="0 0 560 400" xmlns="http://www.w3.org/2000/svg"><path d="m79.6 139.2h-14.2v32.1h14.2zm46.6 6.9v5.1h4.9v15.1c0 2.7 2.3 5 5 5h26.9v-15.1h-14.3v9.9s-.5.3-1.1.3c-1.3 0-2.4-1.1-2.4-2.4v-12.8h17.8v-5.1h-17.7v-5h-14.3v5zm-7.6 25.2h.2c2.6-.2 4.7-2.3 4.7-5v-14.4c0-2.7-2.1-4.8-4.7-5h-.1-.1-28.7-.1c-2.6.2-4.7 2.3-4.7 5v14.4c0 2.7 2.1 4.8 4.7 5zm-9.2-6.8c0 1.4-1.1 2.5-2.4 2.5h-3.6-1.8c-1.3 0-2.4-1.1-2.4-2.5v-11c0-1.4 1.1-2.5 2.4-2.5h5.4c1.3 0 2.4 1.1 2.4 2.5zm-49.4-17.7h-14.3v24.6h14.3zm0-7.6h-14.3v4.4h14.3zm-24.7-1.6h-33v44.1h14.3v-13.9h18.7c2.8 0 5-2.2 5-5v-20.2c0-2.2-1.9-5-5-5m-9.2 23.6c0 1.3-1.1 2.4-2.3 2.4h-7.2v-21.6h7.1c1.3 0 2.4 1.1 2.4 2.4zm145 6.1c1.7 0 3.1 1.4 3.1 3.1 0 1.8-1.4 3.1-3.1 3.1s-3.1-1.4-3.1-3.1 1.4-3.1 3.1-3.1zm0 .5c-1.4 0-2.5 1.2-2.5 2.6 0 1.5 1.1 2.7 2.5 2.7s2.5-1.2 2.5-2.6c0-1.5-1.1-2.7-2.5-2.7zm-.6 4.5h-.5v-3.5c.3 0 .6-.1 1-.1.5 0 .9.1 1.1.3s.3.4.3.7c0 .5-.3.7-.7.8.3.1.5.3.6.8s.2.8.2.9h-.6c-.1-.1-.2-.4-.2-.9-.1-.4-.3-.6-.8-.6h-.4zm0-2h.4c.5 0 .9-.2.9-.6 0-.3-.2-.6-.9-.6h-.4zm223.6-.4c1.7 0 3.1 1.4 3.1 3.1 0 1.8-1.4 3.1-3.1 3.1s-3.1-1.4-3.1-3.1c-.1-1.7 1.3-3.1 3.1-3.1zm0 .5c-1.4 0-2.5 1.2-2.5 2.6 0 1.5 1.1 2.7 2.5 2.7s2.5-1.2 2.5-2.6c0-1.5-1.1-2.7-2.5-2.7zm-.6 4.4h-.6v-3.5c.3 0 .6-.1 1-.1.5 0 .9.1 1.1.3s.3.4.3.7c0 .5-.3.7-.7.8.3.1.5.3.6.8s.2.8.2.9h-.6c-.1-.1-.2-.4-.2-.9-.1-.4-.3-.6-.8-.6h-.4v1.6zm0-1.9h.4c.5 0 .9-.2.9-.6 0-.3-.2-.6-.9-.6h-.4zm-178.5-19.4 1.7-6h13.8l1.4-6h-21.5l-7.7 30.1h7.8l3.1-12h13.3l1.5-6h-13.4zm52.3-12-7.6 10.5-3.5-10.5h-7.8l5.7 16.5-3.4 13.6h7.8l3.2-12.7 14.3-17.4zm10.5 0-7.6 30.1h7.8l7.6-30.1zm29.2 0-4.4 18.6-4.8-18.6h-7.7l-7.7 30.1h7.2l4.5-18.5 4.7 18.5h7.7l7.7-30.1zm-70.8 24.9 6.1-24.9h-7.8l-7.6 30.1h20l1.6-5.2zm117.2 3.9c-.9-2.1-.8-3.9-.5-5.7l.3-2.3s-.6-.3-1.6-.4c-.7-.1-2.2-.1-4.1-.1-2 0-2.4.4-2.4.4s-.2.2-.5 2.4c-.2 1.8-.3 3.6.5 5.7 1.1 2.7 2.6 3.9 5.1 4.9 2.1.9 4.6 1.4 6.7 1.3 1-.1 2.2-.3 2.8-.6-.3-.1-.7-.1-1.1-.2-2.5-.9-4.1-2.7-5.2-5.4m34.7-18.7-17.1-5.8s2.3-11.9 2.7-14.6c1-5.9.9-11.8.9-12.4v-.1c-.7.7-3.6 4.4-5.6 8.3-19.3-1.8-28.3 11-30.4 14.9-1.9-1.2-4.4-2-7.5-2h-.6c-11.6 0-16.6 10.7-16.9 18.4-.4 10.2 6.1 13.9 11.5 13.9h.5c3.3 0 5.2-1.3 6.6-2.7l-.5 1.9h7l4.2-17.2h-13.3l-1.5 6.9h6.1c-.6 1.7-1.2 3-3 4.3-1.1.8-2.4 1-3.6 1.1-1.1-.1-2.2-.4-3-1-2.2-1.5-2.9-4.4-2.8-7.2.2-5.3 3.1-12.1 8.7-12.3.7 0 1.7.2 2.7.8 1.7 1 2 2.3 2.3 3.7l7.6-1.9c4.4-19.6 21-20 24.9-19.8-.6 1.3-1.2 2.7-1.6 4.1l-3.5 12.1-19.9 6.8-.1 1.7h18.4l-3.1 13.4c-.6 2.6-1.5 3.3-2.9 3.6 1.7 6.1 9.3 2.3 9.9 0 .3-1 4.2-17.3 4.2-17.3l18.7-.1c.1.1.1-.9 0-1.5m-12.3-22.8c-.1.2-.2.5-.3.9 11.8 4.9 17.3 18.9 12.3 31.5-.5 1.2-1 2.3-1.7 3.4-2.1 3.9-4.8 6.5-7.8 8.3-3.6 2.4-7.8 3.7-12.1 3.9.2.4.4.8.6 1.1 4.4 1.2 17.4 1.1 24.6-13.9.1-.3.3-.6.4-.9.1-.4.3-.8.4-1.2 4.6-14-3.1-28.5-16.4-33.1" fill="#cf0a2c" fill-rule="nonzero" transform="matrix(1.26614 0 0 1.26614 27.0879 9.82527)"/></svg>

<?xml version="1.0" encoding="UTF-8" standalone="no"?>
<!DOCTYPE svg PUBLIC "-//W3C//DTD SVG 1.1//EN" "http://www.w3.org/Graphics/SVG/1.1/DTD/svg11.dtd">
<svg width="100%" height="100%" viewBox="0 0 560 400" version="1.1" xmlns="http://www.w3.org/2000/svg" xmlns:xlink="http://www.w3.org/1999/xlink" xml:space="preserve" xmlns:serif="http://www.serif.com/" style="fill-rule:evenodd;clip-rule:evenodd;stroke-linejoin:round;stroke-miterlimit:1.41421;">
    <g id="red" transform="matrix(1.26614,0,0,1.26614,27.0879,9.82527)">
        <path d="M79.6,139.2L65.4,139.2L65.4,171.3L79.6,171.3L79.6,139.2ZM126.2,146.1L126.2,151.2L131.1,151.2L131.1,166.3C131.1,169 133.4,171.3 136.1,171.3L163,171.3L163,156.2L148.7,156.2L148.7,166.1C148.7,166.1 148.2,166.4 147.6,166.4C146.3,166.4 145.2,165.3 145.2,164L145.2,151.2L163,151.2L163,146.1L145.3,146.1L145.3,141.1L131,141.1L131,146.1L126.2,146.1ZM118.6,171.3L118.8,171.3C121.4,171.1 123.5,169 123.5,166.3L123.5,151.9C123.5,149.2 121.4,147.1 118.8,146.9L118.7,146.9L118.6,146.9L89.9,146.9L89.8,146.9C87.2,147.1 85.1,149.2 85.1,151.9L85.1,166.3C85.1,169 87.2,171.1 89.8,171.3L118.6,171.3ZM109.4,164.5C109.4,165.9 108.3,167 107,167L103.4,167L101.6,167C100.3,167 99.2,165.9 99.2,164.5L99.2,153.5C99.2,152.1 100.3,151 101.6,151L107,151C108.3,151 109.4,152.1 109.4,153.5L109.4,164.5ZM60,146.8L45.7,146.8L45.7,171.4L60,171.4L60,146.8ZM60,139.2L45.7,139.2L45.7,143.6L60,143.6L60,139.2ZM35.3,137.6L2.3,137.6L2.3,181.7L16.6,181.7L16.6,167.8L35.3,167.8C38.1,167.8 40.3,165.6 40.3,162.8L40.3,142.6C40.3,140.4 38.4,137.6 35.3,137.6M26.1,161.2C26.1,162.5 25,163.6 23.8,163.6L16.6,163.6L16.6,142L23.7,142C25,142 26.1,143.1 26.1,144.4L26.1,161.2ZM171.1,167.3C172.8,167.3 174.2,168.7 174.2,170.4C174.2,172.2 172.8,173.5 171.1,173.5C169.4,173.5 168,172.1 168,170.4C168,168.7 169.4,167.3 171.1,167.3ZM171.1,167.8C169.7,167.8 168.6,169 168.6,170.4C168.6,171.9 169.7,173.1 171.1,173.1C172.5,173.1 173.6,171.9 173.6,170.5C173.6,169 172.5,167.8 171.1,167.8ZM170.5,172.3L170,172.3L170,168.8C170.3,168.8 170.6,168.7 171,168.7C171.5,168.7 171.9,168.8 172.1,169C172.3,169.2 172.4,169.4 172.4,169.7C172.4,170.2 172.1,170.4 171.7,170.5C172,170.6 172.2,170.8 172.3,171.3C172.4,171.8 172.5,172.1 172.5,172.2L171.9,172.2C171.8,172.1 171.7,171.8 171.7,171.3C171.6,170.9 171.4,170.7 170.9,170.7L170.5,170.7L170.5,172.3ZM170.5,170.3L170.9,170.3C171.4,170.3 171.8,170.1 171.8,169.7C171.8,169.4 171.6,169.1 170.9,169.1L170.5,169.1L170.5,170.3ZM394.1,169.9C395.8,169.9 397.2,171.3 397.2,173C397.2,174.8 395.8,176.1 394.1,176.1C392.4,176.1 391,174.7 391,173C390.9,171.3 392.3,169.9 394.1,169.9ZM394.1,170.4C392.7,170.4 391.6,171.6 391.6,173C391.6,174.5 392.7,175.7 394.1,175.7C395.5,175.7 396.6,174.5 396.6,173.1C396.6,171.6 395.5,170.4 394.1,170.4ZM393.5,174.8L392.9,174.8L392.9,171.3C393.2,171.3 393.5,171.2 393.9,171.2C394.4,171.2 394.8,171.3 395,171.5C395.2,171.7 395.3,171.9 395.3,172.2C395.3,172.7 395,172.9 394.6,173C394.9,173.1 395.1,173.3 395.2,173.8C395.3,174.3 395.4,174.6 395.4,174.7L394.8,174.7C394.7,174.6 394.6,174.3 394.6,173.8C394.5,173.4 394.3,173.2 393.8,173.2L393.4,173.2L393.4,174.8L393.5,174.8ZM393.5,172.9L393.9,172.9C394.4,172.9 394.8,172.7 394.8,172.3C394.8,172 394.6,171.7 393.9,171.7L393.5,171.7L393.5,172.9ZM215,153.5L216.7,147.5L230.5,147.5L231.9,141.5L210.4,141.5L202.7,171.6L210.5,171.6L213.6,159.6L226.9,159.6L228.4,153.6L215,153.6L215,153.5ZM267.3,141.5L259.7,152L256.2,141.5L248.4,141.5L254.1,158L250.7,171.6L258.5,171.6L261.7,158.9L276,141.5L267.3,141.5ZM277.8,141.5L270.2,171.6L278,171.6L285.6,141.5L277.8,141.5ZM307,141.5L302.6,160.1L297.8,141.5L290.1,141.5L282.4,171.6L289.6,171.6L294.1,153.1L298.8,171.6L306.5,171.6L314.2,141.5L307,141.5ZM236.2,166.4L242.3,141.5L234.5,141.5L226.9,171.6L246.9,171.6L248.5,166.4L236.2,166.4ZM353.4,170.3C352.5,168.2 352.6,166.4 352.9,164.6L353.2,162.3C353.2,162.3 352.6,162 351.6,161.9C350.9,161.8 349.4,161.8 347.5,161.8C345.5,161.8 345.1,162.2 345.1,162.2C345.1,162.2 344.9,162.4 344.6,164.6C344.4,166.4 344.3,168.2 345.1,170.3C346.2,173 347.7,174.2 350.2,175.2C352.3,176.1 354.8,176.6 356.9,176.5C357.9,176.4 359.1,176.2 359.7,175.9C359.4,175.8 359,175.8 358.6,175.7C356.1,174.8 354.5,173 353.4,170.3M388.1,151.6L371,145.8C371,145.8 373.3,133.9 373.7,131.2C374.7,125.3 374.6,119.4 374.6,118.8L374.6,118.7C373.9,119.4 371,123.1 369,127C349.7,125.2 340.7,138 338.6,141.9C336.7,140.7 334.2,139.9 331.1,139.9L330.5,139.9C318.9,139.9 313.9,150.6 313.6,158.3C313.2,168.5 319.7,172.2 325.1,172.2L325.6,172.2C328.9,172.2 330.8,170.9 332.2,169.5L331.7,171.4L338.7,171.4L342.9,154.2L329.6,154.2L328.1,161.1L334.2,161.1C333.6,162.8 333,164.1 331.2,165.4C330.1,166.2 328.8,166.4 327.6,166.5C326.5,166.4 325.4,166.1 324.6,165.5C322.4,164 321.7,161.1 321.8,158.3C322,153 324.9,146.2 330.5,146C331.2,146 332.2,146.2 333.2,146.8C334.9,147.8 335.2,149.1 335.5,150.5L343.1,148.6C347.5,129 364.1,128.6 368,128.8C367.4,130.1 366.8,131.5 366.4,132.9L362.9,145L343,151.8L342.9,153.5L361.3,153.5L358.2,166.9C357.6,169.5 356.7,170.2 355.3,170.5C357,176.6 364.6,172.8 365.2,170.5C365.5,169.5 369.4,153.2 369.4,153.2L388.1,153.1C388.2,153.2 388.2,152.2 388.1,151.6M375.8,128.8C375.7,129 375.6,129.3 375.5,129.7C387.3,134.6 392.8,148.6 387.8,161.2C387.3,162.4 386.8,163.5 386.1,164.6C384,168.5 381.3,171.1 378.3,172.9C374.7,175.3 370.5,176.6 366.2,176.8C366.4,177.2 366.6,177.6 366.8,177.9C371.2,179.1 384.2,179 391.4,164C391.5,163.7 391.7,163.4 391.8,163.1C391.9,162.7 392.1,162.3 392.2,161.9C396.8,147.9 389.1,133.4 375.8,128.8" style="fill:rgb(207,10,44);fill-rule:nonzero;"/>
    </g>
</svg>
